X:7002
T:Galopede
T:Yarmouth Reel
R:Reel
C:Trad.
O:England
M:4/4
L:1/8
Q:1/4=140
K:G
dc|"G"B2 Bc "D"A2 AB|"G"G2 "C"G2 "G"G2 AB|"C"cBcd "Am"edcB|"D"A2 A2 A2 dc|
"G"B2 Bc "D"A2 AB|"Em"G2 G2 "G"G2 AB|"Am"cBAG "D7"FGAF|"G"G2 G2 G2:|
dc|"G"B2 gf "C"e2 ed|"Am7"dcBc "D"A2 dc|"G"B2 gf "Am"edcB|"D"A2 A2 A2 dc|
"G"B2 gf "C"e2 ed|"Am7"dcBc "D"A2 dc|"G"BdcB "D7"AcBA|"G"G2 G2 G2||
Bc|"G"d2 d2 d2 g2|d2 d2 d2 g2|d2 d2 "C"edcB|"D"A2 A2 A2 Bc|
"G"d2 d2 d2 g2|"G"d2 d2 d2 g2|"C"edcB "D7"dcBA|"G"G2 G2 G2|]

